X:875
M:C|
L:1/8
K:D
|:g|fefg aeeg|fdgf e>EE>g|1 fefg aeeg fdec dDD:|2 fefg abag|fdec dDD||

